apps/www/public/images/logos/publicity/fixed-width/mdn.svg

<svg width="180" height="60" viewBox="0 0 180 60" fill="none" xmlns="http://www.w3.org/2000/svg">
<path d="M49.8868 14.959L41.5824 41.7018H38.1851L46.4605 14.959H49.8868ZM52.9067 14.959V41.7018H49.8868V14.959H52.9067ZM64.6084 14.959L56.333 41.7018H52.9357L61.2112 14.959H64.6084ZM67.6283 14.959V41.7018H64.6084V14.959H67.6283Z" fill="#7E7E7E"/>
<path d="M95.0679 36.1558H90.1027V34.5588H91.206V29.971C91.206 28.8966 91.0028 28.1416 90.5963 27.6771C90.1898 27.2125 89.6381 27.0092 88.9412 27.0092C88.012 27.0092 87.3151 27.3286 86.8505 27.9965C86.386 28.6643 86.1537 29.3322 86.1246 30V34.5297H87.8668V36.1267H82.9016V34.5297H84.005V29.971C84.005 28.8676 83.8017 28.1126 83.3952 27.6771C82.9887 27.2415 82.437 27.0092 81.7691 27.0092C80.84 27.0092 80.1721 27.3286 79.6785 27.9674C79.2139 28.6062 78.9816 29.2741 78.9526 29.971V34.5588H80.9561V36.1558H75.0907V34.5588H76.8329V27.2125H75.0616V25.5864H78.9526V27.4448C79.301 26.835 79.7366 26.3414 80.3173 25.9349C80.898 25.5574 81.5949 25.3541 82.437 25.3541C83.279 25.3541 83.9759 25.5574 84.6147 25.9639C85.2535 26.3704 85.6891 26.9802 85.9214 27.8222C86.2408 27.0963 86.7054 26.5156 87.3442 26.051C87.983 25.5864 88.7379 25.3541 89.6381 25.3541C90.6544 25.3541 91.5255 25.6735 92.2223 26.3123C92.9192 26.9511 93.2967 27.9384 93.2967 29.2741V34.5588H95.0679V36.1558ZM107.409 36.1558H103.576V34.0651C103.227 34.7039 102.763 35.2556 102.153 35.6912C101.543 36.1558 100.759 36.3881 99.7428 36.3881C98.3491 36.3881 97.2166 35.9235 96.3746 34.9653C95.5325 34.0361 95.126 32.7294 95.126 31.1034C95.126 29.6516 95.5035 28.3159 96.2875 27.1254C97.0424 25.9349 98.291 25.3251 100.004 25.3251C101.717 25.3251 102.85 25.9639 103.576 27.2125V21.4922H101.079V19.8662H105.666V34.5588H107.409V36.1558ZM103.547 31.2776V30C103.518 29.1289 103.198 28.403 102.617 27.8803C102.037 27.3577 101.34 27.0673 100.527 27.0673C99.4815 27.0673 98.6975 27.4448 98.1458 28.1997C97.5941 28.9547 97.3328 29.8838 97.3328 30.9872C97.3328 32.1777 97.6232 33.1069 98.2039 33.7457C98.7846 34.3845 99.5105 34.7039 100.353 34.7039C101.282 34.7039 102.037 34.3265 102.617 33.6005C103.227 32.8456 103.518 32.0616 103.547 31.2776ZM115.8 36.1558V34.5588H117.542V29.971C117.542 28.8966 117.339 28.1416 116.904 27.6771C116.497 27.2125 115.916 27.0092 115.248 27.0092C114.348 27.0092 113.622 27.2996 113.1 27.8803C112.577 28.4611 112.287 29.1579 112.258 29.9129V34.5297H114V36.1267H108.396V34.5297H110.138V27.2125H108.338V25.5864H112.287V27.3867C113.042 26.051 114.261 25.3832 115.974 25.3832C117.02 25.3832 117.92 25.7026 118.646 26.3414C119.372 26.9802 119.72 27.9674 119.72 29.3031V34.5878H121.462V36.1558H115.8Z" fill="#7E7E7E"/>
<path d="M123.06 42.4858H142.514V45.041H123.06V42.4858Z" fill="#7E7E7E"/>
</svg>

<svg xmlns="http://www.w3.org/2000/svg" width="180" height="60" fill="none" viewBox="0 0 180 60"><path fill="#7e7e7e" d="m49.887 14.959-8.305 26.743h-3.397l8.276-26.743zm3.02 0v26.743h-3.02V14.959zm11.701 0-8.275 26.743h-3.397l8.275-26.743zm3.02 0v26.743h-3.02V14.959zM95.068 36.156h-4.965v-1.597h1.103V29.97c0-1.074-.203-1.83-.61-2.294-.406-.465-.958-.668-1.655-.668-.929 0-1.626.32-2.09.988-.465.667-.697 1.335-.726 2.003v4.53h1.742v1.597h-4.965V34.53h1.103V29.97c0-1.103-.203-1.858-.61-2.294s-.958-.668-1.626-.668c-.929 0-1.597.32-2.09.958-.465.64-.697 1.307-.726 2.004v4.588h2.003v1.597h-5.865v-1.597h1.742v-7.346h-1.771v-1.627h3.89v1.859a4.5 4.5 0 0 1 1.365-1.51c.581-.378 1.278-.58 2.12-.58s1.539.202 2.178.609 1.074 1.016 1.306 1.858a4.25 4.25 0 0 1 1.423-1.771c.639-.465 1.394-.697 2.294-.697 1.016 0 1.887.32 2.584.958.697.64 1.075 1.626 1.075 2.962v5.285h1.77zm12.341 0h-3.833v-2.09a4.8 4.8 0 0 1-1.423 1.625c-.61.465-1.394.697-2.41.697-1.394 0-2.526-.465-3.368-1.423-.843-.929-1.249-2.236-1.249-3.862 0-1.451.377-2.787 1.161-3.978.755-1.19 2.004-1.8 3.717-1.8s2.846.639 3.572 1.887v-5.72h-2.497v-1.626h4.587V34.56h1.743zm-3.862-4.878V30c-.029-.871-.349-1.597-.93-2.12a3.04 3.04 0 0 0-2.09-.813c-1.046 0-1.83.378-2.381 1.133-.552.755-.813 1.684-.813 2.787 0 1.19.29 2.12.87 2.759.582.639 1.307.958 2.15.958.929 0 1.684-.377 2.264-1.104.61-.754.901-1.538.93-2.322m12.253 4.878v-1.597h1.742V29.97c0-1.074-.203-1.83-.638-2.294-.407-.465-.988-.668-1.656-.668-.9 0-1.626.29-2.148.871a3.18 3.18 0 0 0-.842 2.033v4.617H114v1.597h-5.604V34.53h1.742v-7.318h-1.8v-1.626h3.949v1.8c.755-1.335 1.974-2.003 3.687-2.003 1.046 0 1.946.32 2.672.958.726.64 1.074 1.626 1.074 2.962v5.285h1.742v1.568zM123.06 42.486h19.454v2.555H123.06z"/></svg>
